X:1
T:Polka
R:polka
A:France 
%%textfont Helvetica-Narrow 10pt
%%begintext align
S:gelernt von Adele Frost, Muenchen
%%endtext
Z:abc transcription Simon Wascher
M:2/4
L:1/8
K:G
B/c/ |\
dB BA/B/ | cE E2 | eF eF | G/A/B/c/ dB/c/ |
dB BA/B/ | cE E2 | eF eF | GB G2 :|
|:\
D/E/F/G/ A/G/F/E/ | Dc c2 | D/E/F/G/ A/G/F/E/ | DB B2 |
D/E/F/G/ A/G/F/E/ | Dc c2 | D/E/F/G/ A/G/F/E/ | DB G2 :|
